X: 1
T: Vals fr\aan Seglora
O: efter Johan Helgo Andersson
Z: John Chambers <jc@trillian.mit.edu>
M: 3/4
L: 1/8
K: A
|: "A"e>e e2 e2 | c>d cB A2- | "D"A>A d2 d2 | "A"(Ac) eg a2 \
| e2 c2 A2 | "G"B3 (AB)c | (dc) B2 =G2 | "A"A6 :|
|: "A"a>a a2 (ab) | a>b ag e2 | "G"=ga gf "(D)"df | "A"e3 (dc)e \
| ag e2 c2 | e2 c2 c2 | "G"d2 B2 =G2 | "A"A6 :|
